X: 2439
T: Ballinara Ora
R: jig
M: 6/8
K: Dmajor
DS|:DED dcd|edc d2f|edc Bcd|1 ABG F2A:|2 ABG FAA||
BGE EGB|B3G3|AFD DFA|A3F3|
BGE EGB|e3 c2c|dAF GEC|D3D2 DS||

